icons-dark/actions/22/go-down.svg

<?xml version="1.0" encoding="UTF-8" standalone="no"?>
<!-- Created with Inkscape (http://www.inkscape.org/) -->

<svg
   xmlns:dc="http://purl.org/dc/elements/1.1/"
   xmlns:cc="http://creativecommons.org/ns#"
   xmlns:rdf="http://www.w3.org/1999/02/22-rdf-syntax-ns#"
   xmlns:svg="http://www.w3.org/2000/svg"
   xmlns="http://www.w3.org/2000/svg"
   xmlns:sodipodi="http://sodipodi.sourceforge.net/DTD/sodipodi-0.dtd"
   xmlns:inkscape="http://www.inkscape.org/namespaces/inkscape"
   width="22"
   height="22"
   id="svg2"
   version="1.1"
   inkscape:version="0.48+devel r"
   viewBox="0 0 21.999999 22"
   sodipodi:docname="arrow-down.svg">
  <defs
     id="defs4" />
  <sodipodi:namedview
     id="base"
     pagecolor="#ffffff"
     bordercolor="#666666"
     borderopacity="1.0"
     inkscape:pageopacity="0.0"
     inkscape:pageshadow="2"
     inkscape:zoom="16"
     inkscape:cx="12.79404"
     inkscape:cy="11.535297"
     inkscape:document-units="px"
     inkscape:current-layer="layer1"
     showgrid="true"
     inkscape:window-width="1366"
     inkscape:window-height="718"
     inkscape:window-x="-2"
     inkscape:window-y="23"
     inkscape:window-maximized="1"
     inkscape:showpageshadow="false"
     borderlayer="true"
     units="px"
     width="24px"
     showguides="true">
    <inkscape:grid
       type="xygrid"
       id="grid4081" />
    <sodipodi:guide
       position="2,20.000017"
       orientation="18,0"
       id="guide4113" />
    <sodipodi:guide
       position="2,2.0000174"
       orientation="0,18"
       id="guide4115" />
    <sodipodi:guide
       position="20,2.0000174"
       orientation="-18,0"
       id="guide4117" />
    <sodipodi:guide
       position="20,20.000017"
       orientation="0,-18"
       id="guide4119" />
    <sodipodi:guide
       position="2,20.000017"
       orientation="18,0"
       id="guide4143" />
    <sodipodi:guide
       position="2,2.0000174"
       orientation="0,3.9999995"
       id="guide4145" />
    <sodipodi:guide
       position="5.9999995,20.000017"
       orientation="0,-3.9999995"
       id="guide4149" />
    <sodipodi:guide
       position="15.999999,2.0000174"
       orientation="0,4.0000019"
       id="guide4153" />
    <sodipodi:guide
       position="20,2.0000174"
       orientation="-18,0"
       id="guide4155" />
    <sodipodi:guide
       position="20,20.000017"
       orientation="0,-4.0000019"
       id="guide4157" />
    <sodipodi:guide
       position="3,19.000017"
       orientation="16,0"
       id="guide4278" />
    <sodipodi:guide
       position="3,3.0000174"
       orientation="0,16"
       id="guide4280" />
    <sodipodi:guide
       position="19,3.0000174"
       orientation="-16,0"
       id="guide4282" />
    <sodipodi:guide
       position="19,19.000017"
       orientation="0,-16"
       id="guide4284" />
    <sodipodi:guide
       position="3,4.0000174"
       orientation="1,0"
       id="guide4290" />
    <sodipodi:guide
       position="3,3.0000174"
       orientation="0,16"
       id="guide4292" />
    <sodipodi:guide
       position="19,3.0000174"
       orientation="-1,0"
       id="guide4294" />
    <sodipodi:guide
       position="3,19.000262"
       orientation="1,0"
       id="guide4298" />
    <sodipodi:guide
       position="19,18.000262"
       orientation="-1,0"
       id="guide4302" />
    <sodipodi:guide
       position="19,19.000262"
       orientation="0,-16"
       id="guide4304" />
    <sodipodi:guide
       position="3,19.000017"
       orientation="16,0"
       id="guide4132" />
    <sodipodi:guide
       position="3,3.0000174"
       orientation="0,4.0000005"
       id="guide4134" />
    <sodipodi:guide
       position="7.0000005,3.0000174"
       orientation="-16,0"
       id="guide4136" />
    <sodipodi:guide
       position="7.0000005,19.000017"
       orientation="0,-4.0000005"
       id="guide4138" />
    <sodipodi:guide
       position="15.000001,3.0000174"
       orientation="0,4"
       id="guide4142" />
    <sodipodi:guide
       position="19,3.0000174"
       orientation="-16,0"
       id="guide4144" />
    <sodipodi:guide
       position="19,19.000017"
       orientation="0,-4"
       id="guide4146" />
    <sodipodi:guide
       position="7.0000005,11.000506"
       orientation="8,0"
       id="guide4158" />
    <sodipodi:guide
       position="7.0000005,3.0005057"
       orientation="0,8"
       id="guide4160" />
    <sodipodi:guide
       position="7.0000005,19.000017"
       orientation="15.999512,0"
       id="guide4168" />
    <sodipodi:guide
       position="7.0000005,3.0005057"
       orientation="0,0.99999952"
       id="guide4170" />
    <sodipodi:guide
       position="8,19.000017"
       orientation="0,-0.99999952"
       id="guide4174" />
    <sodipodi:guide
       position="14,3.0000174"
       orientation="0,1.000001"
       id="guide4323" />
    <sodipodi:guide
       position="15.000001,19.000262"
       orientation="0,-1.000001"
       id="guide4327" />
    <sodipodi:guide
       position="9.832082,8.8750918"
       orientation="0.70710678,-0.70710678"
       id="guide4193" />
    <sodipodi:guide
       position="9.1249753,8.167985"
       orientation="-6.1249931,-6.1249931"
       id="guide4195" />
    <sodipodi:guide
       position="2.9999822,14.292978"
       orientation="-0.70710678,0.70710678"
       id="guide4197" />
    <sodipodi:guide
       position="3.7070889,15.000085"
       orientation="6.1249931,6.1249931"
       id="guide4199" />
    <sodipodi:guide
       position="12.167899,8.8750918"
       orientation="0.70710678,0.70710678"
       id="guide4201" />
    <sodipodi:guide
       position="12.875006,8.167985"
       orientation="-6.1249931,6.1249931"
       id="guide4203" />
    <sodipodi:guide
       position="18.999999,14.292978"
       orientation="-0.70710678,-0.70710678"
       id="guide4205" />
    <sodipodi:guide
       position="18.292893,15.000085"
       orientation="6.1249931,-6.1249931"
       id="guide4207" />
    <sodipodi:guide
       position="9.1249915,8.1682"
       orientation="-0.7071,0.7071"
       id="guide4209" />
    <sodipodi:guide
       position="9.8320915,8.8753"
       orientation="1.1681,1.1682"
       id="guide4211" />
    <sodipodi:guide
       position="11.000292,7.7072"
       orientation="-1.1681,1.168099"
       id="guide4213" />
    <sodipodi:guide
       position="12.168391,8.8753"
       orientation="0.7071,0.7071"
       id="guide4215" />
    <sodipodi:guide
       position="12.875491,8.1682"
       orientation="1.8752,-1.875199"
       id="guide4217" />
    <sodipodi:guide
       position="11.000292,6.293"
       orientation="-1.8752,-1.8753"
       id="guide4219" />
  </sodipodi:namedview>
  <metadata
     id="metadata7">
    <rdf:RDF>
      <cc:Work
         rdf:about="">
        <dc:format>image/svg+xml</dc:format>
        <dc:type
           rdf:resource="http://purl.org/dc/dcmitype/StillImage" />
        <dc:title></dc:title>
      </cc:Work>
    </rdf:RDF>
  </metadata>
  <g
     inkscape:label="Capa 1"
     inkscape:groupmode="layer"
     id="layer1"
     transform="translate(0,-1030.3622)">
    <path
       style="fill:#f2f2f2;fill-opacity:1;stroke:none"
       d="M 3.7070312 7 L 3 7.7070312 L 9.125 13.832031 L 11 15.707031 L 12.875 13.832031 L 19 7.7070312 L 18.292969 7 L 12.167969 13.125 L 11 14.292969 L 9.8320312 13.125 L 3.7070312 7 z "
       transform="translate(-5e-7,1030.3622)"
       id="rect4176" />
  </g>
</svg>

<svg xmlns="http://www.w3.org/2000/svg" viewBox="0 0 22 22">
  <defs id="defs3051">
    <style type="text/css" id="current-color-scheme">
      .ColorScheme-Text {
        color:#f2f2f2
      }
      </style>
  </defs>
 <path 
    style="fill:currentColor;fill-opacity:1;stroke:none" 
	d="m3.707031 7l-.707031.707031 6.125 6.125 1.875 1.875 1.875-1.875 6.125-6.125-.707031-.707031-6.125 6.125-1.167969 1.167969-1.167969-1.167969-6.125-6.125"
    class="ColorScheme-Text"
    />  
</svg>
